X: 67
T: String Quartet No. 15 in A Minor, Op. 132 mvt 5
C: Ludwig van Beethoven
%%abc-version 2.0
%%abcx-abcm2ps-target-version 5.9.1 (29 Sep 2008)
%%abc-creator hum2abc beta
%%abcx-conversion-date 2021/01/27 10:01:10
%%abc-edited-by Don Anthony
%%abcx-initial-encoding-date 2006/08//
%%gracespace 0 6 6
%%humdrum-veritas 4157195951
%%humdrum-veritas-data 17260378
%%linebreak <none>
%%barnumbers 0
L: 1/8
M: 3/4
N: Derived from quartet15-5.krn
Q: "Allegro appassionato" 3/4=60
%%staves [1 2 3 4]
V: 1 clef=treble
V: 2 clef=treble
V: 3 clef=alto
V: 4 clef=bass
K: C
[V:1] z6 | 
[V:2] z =FE4 | 
[V:3] z2[E,4C4] | 
[V:4] A,,4-A,,E, | 
[V:1] z6 | 
[V:2] z FE4 | 
[V:3] z2[E,4D4] | 
[V:4] B,,4-B,,E, | 
[V:1] A2>E2c.A | 
[V:2] z FE4 | 
[V:3] z2[E,4C4] | 
[V:4] A,,4-A,,E, | 
[V:1] A4^G2 | 
[V:2] z FE4 | 
[V:3] z2[E,4D4] | 
[V:4] B,,4-B,,E, | 
[V:1] A2>B2cd | 
[V:2] z FE4 | 
[V:3] z2[E,4C4] | 
[V:4] A,,4-A,,E, | 
[V:1] .e2.e2.e2 | 
[V:2] z FE4 | 
[V:3] z2[E,4B,4] | 
[V:4] ^G,,4-G,,E, | 
[V:1] e4e2 | 
[V:2] z FC4 | 
[V:3] z2[C,4_B,4] | 
[V:4] =G,,4-G,,C, | 
[V:1] g2>f2.e.d | 
[V:2] z G[C4F4] | 
[V:3] z2[C,4A,4] | 
[V:4] F,,4-F,,C, | 
[V:1] c4ed | 
[V:2] z A[G,4G4] | 
[V:3] z2[E,4C4] | 
[V:4] G,,4-G,,G, | 
[V:1] d2z2z2 | 
[V:2] z AG2FE | 
[V:3] z2[D,3=B,3][C,C] | 
[V:4] G,,4-G,,A,, | 
[V:1] a2>e2c'a | 
[V:2] [CE] f[c4e4] | 
[V:3] z [C,C] AEc.A | 
[V:4] A,,4-A,,E, | 
[V:1] a4^g2 | 
[V:2] z f[d4e4] | 
[V:3] A4^G2 | 
[V:4] B,,4-B,,E, | 
[V:1] a2>b2c'd' | 
[V:2] z f[c4e4] | 
[V:3] A2>B2cd | 
[V:4] A,,4-A,,E, | 
[V:1] .e'2.e'2.e'2 | 
[V:2] z cB4 | 
[V:3] .e2.e2.e2 | 
[V:4] ^G,,4-G,,E, | 
[V:1] e'4e'2 | 
[V:2] z c_B4 | 
[V:3] e2[C,4C4] | 
[V:4] =G,,4-G,,C, | 
[V:1] g'2>f'2.e'.d' | 
[V:2] z _B[A4c4] | 
[V:3] z2[C,4C4] | 
[V:4] F,,4-F,,C, | 
[V:1] c'4e'd' | 
[V:2] z AG4 | 
[V:3] z2[E,4C4] | 
[V:4] G,,4-G,,G, | 
[V:1] d'2z2z2 | 
[V:2] z AG2-GF | 
[V:3] z2B,3D & x2D,4 | 
[V:4] G,,4-G,,D, | 
[V:1] z2d2f2 | 
[V:2] z GF4 | 
[V:3] z2[F,4A,4] | 
[V:4] D,,4-D,,D, | 
[V:1] a6 | 
[V:2] z fe4 | 
[V:3] z2[E,4A,4] | 
[V:4] ^C,4C,=C, | 
[V:1] z2e2g2 | 
[V:2] z AG4 | 
[V:3] z2[E,4B,4] | 
[V:4] E,,4-E,,E, | 
[V:1] b6 | 
[V:2] z cB2-Bf | 
[V:3] z2^F,2-F,^G, | 
[V:4] ^D,4-D,=D, | 
[V:1] z2a2c'2 | 
[V:2] z fe4 | 
[V:3] A,2[E,4C4] | 
[V:4] C,4-C,A,, | 
[V:1] e'4e'2 | 
[V:2] z fe4 | 
[V:3] z2[B,2D2]-[B,D]C | 
[V:4] ^G,,4-G,,A,, | 
[V:1] e'2>b2d'c' | 
[V:2] z A^G4 | 
[V:3] z2[E,4B,4] | 
[V:4] E,,4-E,,E, | 
[V:1] a2z2z2 | 
[V:2] z BAE=GF | 
[V:3] z2C^C2D & x2E,3D, | 
[V:4] A,,4-A,, D, | 
[V:1] z2d2f2 | 
[V:2] Fe[F4d4] | 
[V:3] z2D2F2 | 
[V:4] D,4-D,A, | 
[V:1] a6 | 
[V:2] z FE4 | 
[V:3] A6 | 
[V:4] ^C,4-C,=C, | 
[V:1] z2e2g2 | 
[V:2] z A[B,4G4] | 
[V:3] z2E2G2 | 
[V:4] E,4-E,B, | 
[V:1] b6 | 
[V:2] z G^F2^f=f | 
[V:3] B4^F^G | 
[V:4] ^D,4-D,=D, | 
[V:1] z2a2c'2 | 
[V:2] efe4 | 
[V:3] .A2A2c2 | 
[V:4] C,4-C,A,, | 
[V:1] e'4e'2 | 
[V:2] z FE4 & x2B,2C2 | 
[V:3] e4e2 | 
[V:4] ^G,,4-G,,A,, | 
[V:1] e'2>b2d'c' | 
[V:2] z A[B,4^G4] | 
[V:3] e2>B2dc | 
[V:4] E,,4-E,,E, | 
[V:1] .a2z2z2 | 
[V:2] C ^DE DE E | 
[V:3] A ^D,E, D,E, E, | 
[V:4] A,,2z2z2 | 
[V:1] f'2>c'2e'd' | 
[V:2] E6- | 
[V:3] E,6- | 
[V:4] A,,4-A,,E, | 
[V:1] .b2z2z2 | 
[V:2] E DE DE E | 
[V:3] E, D,E, D,E, E, | 
[V:4] ^G,,2z2z2 | 
[V:1] e'2>b2d'c' | 
[V:2] E6- | 
[V:3] E,6- | 
[V:4] ^G,,4-G,,E, | 
[V:1] .a2z2z2 | 
[V:2] E ^DE DE E | 
[V:3] E, ^D,E, D,E, E, | 
[V:4] A,,2z2z2 | 
[V:1] f'2>c'2e'd' | 
[V:2] E6 | 
[V:3] E,6 | 
[V:4] A,,4-A,,E, | 
[V:1] b z b z c' z | 
[V:2] E z e z [ce] z | 
[V:3] [E,B,] z B z E z | 
[V:4] ^G,, z ^G, z A, z | 
[V:1] d' z c' z b z | 
[V:2] f z A z ^G z | 
[V:3] A z E z E, z | 
[V:4] D, z E, z E, z | 
[V:1] a ^d'e' d'e' e' | 
[V:2] [ce] fe fe e | 
[V:3] A, A^G AG [CA] | 
[V:4] A,,2z2z2 | 
[V:1] e'6- | 
[V:2] e6- | 
[V:3] [C6A6] | 
[V:4] F,2>C,2E,D, | 
[V:1] e' ^d'e' d'e' e' | 
[V:2] e fe fe B | 
[V:3] [^GB] AG AG G | 
[V:4] B,,2z2z2 | 
[V:1] e'6- | 
[V:2] e6- | 
[V:3] ^G6 | 
[V:4] E,2>B,,2D,C, | 
[V:1] e' ^d'e' d'e' e' | 
[V:2] e CB, CB, C | 
[V:3] c FE FE F | 
[V:4] A,, A,^G, A,G, A, | 
[V:1] e'2>b2d'c' | 
[V:2] B, fe fe e | 
[V:3] E FE FE E | 
[V:4] ^G,4-G,A, | 
[V:1] a z a z b z | 
[V:2] e z^f2z z | 
[V:3] [CE] z [CD] z [B,D] z | 
[V:4] A, z D, z =G, z | 
[V:1] c' z b z a z | 
[V:2] g z g z [A^f] z | 
[V:3] [=G,E] z [G,D] z [Dd] z | 
[V:4] C, z D, z D, z | 
[V:1] =g zz2z2 | 
[V:2] [Bg] z B, z C z | 
[V:3] [Dd] z G, z A, z | 
[V:4] G, zz2z2 | 
[V:1] z2b z c' z | 
[V:2] D z C z B, z | 
[V:3] B, z A, z G, z | 
[V:4] [K:clef=tenor]z2G z A z | 
[V:1] d'4g2 | 
[V:2] B,de^c d z | 
[V:3] G, zz2B,B | 
[V:4] B zz2z2 | 
[V:1] ^f2z2f2 | 
[V:2] z =cdB c z | 
[V:3] BAz2A,A | 
[V:4] z6 | 
[V:1] b4e2 | 
[V:2] z BcAB2 | 
[V:3] AGz2G,G | 
[V:4] z6 | 
[V:1] d2z2d2 | 
[V:2] z AB^G AB | 
[V:3] G^Fz2F=F | 
[V:4] z6 | 
[V:1] .g2c2.B2 | 
[V:2] cGA^FG=F | 
[V:3] E2E,2D,D | 
[V:4] z6 | 
[V:1] A2.G2B2 | 
[V:2] E^FDEFG- | 
[V:3] C,C B,CA,G,- | 
[V:4] z2z2[K:clef=bass]G,,2 | 
[V:1] A4e2 | 
[V:2] G^FGEFG | 
[V:3] G,^F,G,E,F,G, | 
[V:4] C,6 | 
[V:1] ^d4.g2 | 
[V:2] B4B2 | 
[V:3] B,4[E,2G,2] | 
[V:4] B,,4[K:clef=tenor]B,2 | 
[V:1] .g4.g2 | 
[V:2] A4e2 | 
[V:3] [C,4C4][C,2C2] | 
[V:4] A,4E2 | 
[V:1] g4gb | 
[V:2] ^d4e2- | 
[V:3] B,4[C,2-E2] | 
[V:4] ^D4E2- | 
[V:1] b4e'2 | 
[V:2] e4e2 | 
[V:3] [C,4C4][C,2G2]- | 
[V:4] E4E2 | 
[V:1] ^d'4e'2- | 
[V:2] =f4[G2e2]- | 
[V:3] [C,4G4][C,2C2]- | 
[V:4] =F4EG | 
[V:1] e'2>z2e'2- | 
[V:2] [G2e2]>z2[e2g2]- | 
[V:3] [C,2C2]>z2[B,2E2]- | 
[V:4] ^FGE z EG | 
[V:1] e'2>z2e'2- | 
[V:2] [e2g2]>z2[c2a2]- | 
[V:3] [B,2E2]>z2[A,2E2]- | 
[V:4] ^FGE z EG | 
[V:1] e'2>z2e'2- | 
[V:2] [c2a2]>z2[B2b2]- | 
[V:3] [A,2E2]>z2[G,2E2]- | 
[V:4] ^FGE z EG | 
[V:1] e'2>z2^d'2 | 
[V:2] [B2b2]>z2z2 | 
[V:3] [G,2E2]>z2z2 | 
[V:4] ^FGE zz2 | 
[V:1] e'6 | 
[V:2] z6 | 
[V:3] z6 | 
[V:4] [K:clef=bass]z G,,B,,E,^F,G, | 
[V:1] c'2a2.=f2 | 
[V:2] z6 | 
[V:3] B,CE=F^GA | 
[V:4] ^G,A,z2z2 | 
[V:1] e6 | 
[V:2] z2^ABeg | 
[V:3] ^F=Gz2GB | 
[V:4] ^A,B,z2z2 | 
[V:1] ^d2b2e'2- | 
[V:2] =ac'ba[e2g2]- | 
[V:3] ^FAGF[C,2C2]- | 
[V:4] z2z2[K:clef=tenor]EG | 
[V:1] e'2>z2g'2- | 
[V:2] [e2g2]>z2[G2e2]- | 
[V:3] [C,2C2]>z2B,2- | 
[V:4] ^FGE z EG | 
[V:1] g'2>z2a'2- | 
[V:2] [G2e2]>z2[c2e2]- | 
[V:3] B,2>z2[A,2E2]- | 
[V:4] ^FGE z EG | 
[V:1] a'2>z2b'2- | 
[V:2] [c2e2]>z2[B2e2]- | 
[V:3] [A,2E2]>z2[G,2G2]- | 
[V:4] ^FGE z EG | 
[V:1] b'2>z2e2 | 
[V:2] [B2e2]>z2z2 | 
[V:3] [G,2G2]>z2z2 | 
[V:4] ^FGE2[K:clef=bass]C,,2- | 
[V:1] e'6 | 
[V:2] z6 | 
[V:3] z6 | 
[V:4] C,,E,,G,,B,,C,E, | 
[V:1] c'2a2.=f2 | 
[V:2] z6 | 
[V:3] ^G,A,B,CE=F | 
[V:4] E,=F,^G,A,z2 | 
[V:1] ^cdef^ga | 
[V:2] f6 | 
[V:3] F6 | 
[V:4] z6 | 
[V:1] bc'd'e'f'^f' | 
[V:2] d2B2GC | 
[V:3] D2B,2.=G,2 | 
[V:4] z2z2B,,A,, | 
[V:1] g'6 | 
[V:2] ^A,B,^CDEF | 
[V:3] G,6 | 
[V:4] F,,G,,^A,,B,,^C,D, | 
[V:1] e'2c'2.b2 | 
[V:2] .G,2.G2.G2 | 
[V:3] D,E,F,E,F,G, | 
[V:4] B,,=C,D,C,D,E, | 
[V:1] a2=f2e2 | 
[V:2] =C=ABABc | 
[V:3] A,6- | 
[V:4] =F,6- | 
[V:1] ^d2e2^G2 | 
[V:2] A2^G2D2 | 
[V:3] A,2B,2B,2 | 
[V:4] F,2E,4- | 
[V:1] A2f2e2 | 
[V:2] C2C4- | 
[V:3] A,2A,4- | 
[V:4] E,2E,4- | 
[V:1] ^d2e2^G2 | 
[V:2] C2B,2E2- | 
[V:3] A,2^G,2B,2 | 
[V:4] E,2E,2D,2 | 
[V:1] =G2^F2=d2 | 
[V:2] E2D2=F2 | 
[V:3] _B,2A,2_A,2- | 
[V:4] ^C,2D,2=C,2 | 
[V:1] =F2E2c2 | 
[V:2] D2C2E2 | 
[V:3] A,2=G,4- | 
[V:4] B,,2C,2B,,2 | 
[V:1] E2D2B2- | 
[V:2] C2B,2D2- | 
[V:3] G,2F,4 | 
[V:4] A,,2B,,2A,,2 | 
[V:1] B2A2^G2 | 
[V:2] D2C2D2 | 
[V:3] E,4=B,2 | 
[V:4] ^G,,2A,,2E,,2 | 
[V:1] z6 | 
[V:2] z FE4 | 
[V:3] z2[E,4C4] | 
[V:4] A,,4-A,,E, | 
[V:1] z6 | 
[V:2] z FE4 | 
[V:3] z2[E,4D4] | 
[V:4] B,,4-B,,E, | 
[V:1] A2>E2c.A | 
[V:2] z FE4 | 
[V:3] z2[E,4C4] | 
[V:4] A,,4-A,,E, | 
[V:1] A4^G2 | 
[V:2] z FE4 | 
[V:3] z2[E,4D4] | 
[V:4] B,,4-B,,E, | 
[V:1] A2>B2cd | 
[V:2] z FE4 | 
[V:3] z2[E,4C4] | 
[V:4] A,,4-A,,E, | 
[V:1] .e2.e2.e2 | 
[V:2] z FE4 | 
[V:3] z2[E,4B,4] | 
[V:4] ^G,,4-G,,E, | 
[V:1] e4e2 | 
[V:2] z FE4 | 
[V:3] z2[C,4_B,4] | 
[V:4] =G,,4-G,,C, | 
[V:1] g2>f2.e.d | 
[V:2] z _BA4 | 
[V:3] z2[C,4C4] | 
[V:4] F,,4-F,,C, | 
[V:1] c4ed | 
[V:2] z AG4 | 
[V:3] z2[E,4C4] | 
[V:4] G,,4-G,,G, | 
[V:1] d2z2z2 | 
[V:2] z AG2FE | 
[V:3] z2[D,3B,3][C,C] | 
[V:4] G,,4-G,,A,, | 
[V:1] a2>e2c'.a | 
[V:2] [CE] f[c4e4] | 
[V:3] A2>E2c.A | 
[V:4] A,,4-A,,E, | 
[V:1] a4^g2 | 
[V:2] z fe4 | 
[V:3] A4^G2 | 
[V:4] B,,4-B,,E, | 
[V:1] a2>b2c'd' | 
[V:2] z f[c4e4] | 
[V:3] A2>B2cd | 
[V:4] A,,4-A,,E, | 
[V:1] .e'2.e'2.e'2 | 
[V:2] z F[B,4E4] | 
[V:3] .e2.e2.e2 | 
[V:4] ^G,,4-G,,E, | 
[V:1] e'4e'2 | 
[V:2] z F[_B,2E2]_B2 | 
[V:3] e4e2 | 
[V:4] =G,,4-G,,2 | 
[V:1] g'2>f'2.e'.d' | 
[V:2] z _BA2a2 | 
[V:3] z2[C,4C4] | 
[V:4] F,,4-F,,C, | 
[V:1] c'4e'd' | 
[V:2] z ag4 | 
[V:3] z2[E,4C4] | 
[V:4] G,,4-G,,G, | 
[V:1] d'2z2z2 | 
[V:2] z ag2GF | 
[V:3] z2B,3D & x2D,4 | 
[V:4] G,,4-G,,D, | 
[V:1] z2d2f2 | 
[V:2] z GF4 | 
[V:3] z2[F,4A,4] | 
[V:4] D,,4-D,,D, | 
[V:1] a6 | 
[V:2] z fe4 | 
[V:3] z2[E,4A,4] | 
[V:4] ^C,4-=C,=C, | 
[V:1] z2e2g2 | 
[V:2] z AG4 | 
[V:3] z2[G,4B,4] | 
[V:4] E,,4-E,,E, | 
[V:1] b6 | 
[V:2] z g^f2-f^g | 
[V:3] z2B,2-B,=F | 
[V:4] ^D,4-D,=D, | 
[V:1] z2a2c'2 | 
[V:2] a=fe4 | 
[V:3] E2[E,4C4] | 
[V:4] C,4C,A,, | 
[V:1] e'4e'2 | 
[V:2] z fe4 | 
[V:3] z2[B,2D2]C2 | 
[V:4] ^G,,4-G,,A,, | 
[V:1] e'2>b2d'c' | 
[V:2] z A^G4 | 
[V:3] z2[E,4B,4] | 
[V:4] E,,4E,,E, | 
[V:1] a2z2z2 | 
[V:2] Aae2=gf | 
[V:3] z2C^CED | 
[V:4] A,,4-A,,D, | 
[V:1] z2d2f2 | 
[V:2] z _B[F4A4] | 
[V:3] z2D2F2 | 
[V:4] D,,4-D,,D, | 
[V:1] a6 | 
[V:2] z fe4 | 
[V:3] A6 | 
[V:4] ^C,4-C,=C, | 
[V:1] z2e2g2 | 
[V:2] z c[G4=B4] | 
[V:3] z2E2G2 | 
[V:4] E,,4-E,,E, | 
[V:1] b6 | 
[V:2] z g^f2-f=f | 
[V:3] B4-B^G | 
[V:4] ^D,4-D,=D, | 
[V:1] z2a2c'2 | 
[V:2] z fe4 | 
[V:3] z2A2c2 | 
[V:4] C,4-C,A,, | 
[V:1] e'4e'2 | 
[V:2] z FE4 & x2B,3C | 
[V:3] e4e2 | 
[V:4] ^G,,4-G,,A,, | 
[V:1] e'2>b2d'c' | 
[V:2] z A[B,4^G4] | 
[V:3] e2>B2dc | 
[V:4] E,,4-E,,E, | 
[V:1] .a2a z a z | 
[V:2] .C2c z f z | 
[V:3] .A2F z C z | 
[V:4] .A,,2F,, z F,, z | 
[V:1] _b2>^f2ag | 
[V:2] c2[=Gc] z [Gc] z | 
[V:3] =G,^F, G, z G, z | 
[V:4] E,,^D,, E,, z E,, z | 
[V:1] =Bdc ^FAG | 
[V:2] z bc' z ^f=g | 
[V:3] z2z C,C z | 
[V:4] z2[E,,2C,2]z2 | 
[V:1] B,DC ^FAG | 
[V:2] z Bc z ^FG | 
[V:3] z2z C,C z | 
[V:4] z2[E,,2C,2]z2 | 
[V:1] Bdc bd'c' | 
[V:2] z B,C z Bc | 
[V:3] z2z G,G z | 
[V:4] z2[E,,2C,2]z2 | 
[V:1] =f'2>e2g=f | 
[V:2] c^AB z [=FB] z | 
[V:3] =F,G,F, z F, z | 
[V:4] D,,^C,,D,, z D,, z | 
[V:1] ^AcB EG=F | 
[V:2] z e=f z ^AB | 
[V:3] z2z G,D z | 
[V:4] z2[D,,2G,,2]z2 | 
[V:1] EGF ^AcB | 
[V:2] z EF z ef | 
[V:3] z2z G,F z | 
[V:4] z2[D,,2G,,2]z2 | 
[V:1] egf egf | 
[V:2] z ^c'd' z ^cd | 
[V:3] z2z DB z | 
[V:4] z2[G,,2G,2]z2 | 
[V:1] z2z Edc | 
[V:2] EFE eB=c | 
[V:3] G,DG, GFE | 
[V:4] C,B,, [C,,C,] z [C,,C,] z & C,,2x4 | 
[V:1] z2z Bgf | 
[V:2] DED FAB | 
[V:3] F,G,F, DCD | 
[V:4] C,B,, [C,,C,] z [C,,C,] z & C,,2x4 | 
[V:1] z2z ed'c' | 
[V:2] CDC gfe | 
[V:3] E,F,E, GBc | 
[V:4] C,B,,[C,,2C,2][C,,C,] z & C,,2x4 | 
[V:1] z2z bg'f' | 
[V:2] FGF dAB | 
[V:3] D,E,D, FCD | 
[V:4] C,B,, [C,,C,] z [C,,C,] z & C,,2x4 | 
[V:1] ^d'e'a=d'bc' | 
[V:2] Gg^f=fge- | 
[V:3] G,G^F=FGE- | 
[V:4] x6 & z6 | 
[V:1] fbea^fg | 
[V:2] ed^c=cdB | 
[V:3] ED^C=CDB, | 
[V:4] x6 & z6 | 
[V:1] c=fBe^cd | 
[V:2] _BA^G=GAF | 
[V:3] _B,A,^G,=G,A,F, | 
[V:4] x6 & z6 | 
[V:1] G=cgcfB | 
[V:2] E_E=EADG | 
[V:3] E,_E,=E,A,D,G, | 
[V:4] z2G4 | 
[V:1] gcgG ag | 
[V:2] ^deA=d=Bc | 
[V:3] ^DEA,=D=B,C | 
[V:4] G,GF,FE,E | 
[V:1] bgc'gd'g | 
[V:2] FBEA^FG | 
[V:3] F,B,E,A,^F,G, | 
[V:4] D,DC,CB,,B, | 
[V:1] e'gf'gg'g | 
[V:2] C=fBe^cd | 
[V:3] C,FB,E^CD | 
[V:4] A,,A,G,,G,F,,F, | 
[V:1] g'gg'gg'g | 
[V:2] B=cgcfB | 
[V:3] B,=CGCFB, | 
[V:4] E,,E,_E,,_E,D,,D, | 
[V:1] g'^f' [gg'] z [gg'] z | 
[V:2] [B2f2][DB] z [DB] z | 
[V:3] [F,2G,2][F,G,] z [F,G,] z | 
[V:4] D,,2>=E,,2G,,F,, | 
[V:1] z2[d2g2]z2 | 
[V:2] z2z GG, z | 
[V:3] z EF z ^A,B, | 
[V:4] ^A,,C,B,, ^C,E,D, | 
[V:1] z2[B2g2]z2 | 
[V:2] z2z GG, z | 
[V:3] z ^CD z EF | 
[V:4] E,G,F, ^A,=CB, | 
[V:1] z2[B2g2]z2 | 
[V:2] z GF GG, z | 
[V:3] z ^cd ceB | 
[V:4] ^CED EGF | 
[V:1] d'^c' [dd'] z [dd'] z | 
[V:2] [^F2A2][FA] z [FA] z | 
[V:3] [=C2D2][CD] z [CD] z | 
[V:4] C,,2>E,,2G,,^F,, | 
[V:1] z2[d2d'2]z2 | 
[V:2] z ^GA z B,C | 
[V:3] z DC DD, z | 
[V:4] ^G,,B,,=A,, B,,D,C, | 
[V:1] z2[d2d'2]z2 | 
[V:2] z ^cd z ^ga | 
[V:3] z ED DD,C | 
[V:4] E,=G,^F, ^G,B,A, | 
[V:1] z2[d2d'2]z2 | 
[V:2] z ^ga z ga | 
[V:3] z BA dBA | 
[V:4] B,DC B,DC | 
[V:1] =f'e' [ff'] z [ff'] z | 
[V:2] [d2=f2][df] z [Bf] z | 
[V:3] [^G,2^G2][G,G] z [G,G] z | 
[V:4] B,,2>^C,2E,D, | 
[V:1] z2[f2f'2]z2 | 
[V:2] z ^cd z ef | 
[V:3] z ED FED | 
[V:4] E,=G,=F, ^A,CB, | 
[V:1] z2[f2f'2]z2 | 
[V:2] z gf z ed | 
[V:3] z ^cd z =G,^G, | 
[V:4] [K:clef=tenor]^CED EGF | 
[V:1] z2[f2f'2]z2 | 
[V:2] egf ^a=c'b | 
[V:3] z ^A,B, E=GF | 
[V:4] ^CED CED | 
[V:1] e'^d' [ee'] z [ee'] z | 
[V:2] [_B2_b2][Bb] z [Bb] z | 
[V:3] [E,2G,2][E,G,] z [E,G,] z | 
[V:4] [K:clef=bass]^C,,2>^B,,,2D,,C,, | 
[V:1] z2[e2e'2]z2 | 
[V:2] z ^fg g=fe | 
[V:3] z ^FG _B,^G,A, | 
[V:4] ^F,,A,,G,, ^B,,D,^C, | 
[V:1] z2[e2e'2]z2 | 
[V:2] z a_b gfe | 
[V:3] z ^F=G _B^GA | 
[V:4] ^F,A,G,[K:clef=tenor] ^B,DC | 
[V:1] z2[e2e'2]z2 | 
[V:2] z ^fg afg | 
[V:3] z c_B AcB | 
[V:4] ^FAG FAG | 
[V:1] z2z =b=d'^c' | 
[V:2] [_Bg]d^c zz2 | 
[V:3] =FAG zz2 | 
[V:4] D=FE zz2 | 
[V:1] z2z ^c'e'd' | 
[V:2] ^ced zz2 | 
[V:3] G_BA zz2 | 
[V:4] EG=F zz2 | 
[V:1] z2z d'f'e' | 
[V:2] d=fe zz2 | 
[V:3] Fd^c zz2 | 
[V:4] [K:clef=bass]_B,,G,,A,, zz2 | 
[V:1] z2z e'g'f' | 
[V:2] egf zz2 | 
[V:3] ^ced zz2 | 
[V:4] _B,,G,,A,, zz2 | 
[V:1] z2z2z A | 
[V:2] z2z FE2- | 
[V:3] z D^C4- | 
[V:4] [K:clef=tenor]_B6- | 
[V:1] G6 | 
[V:2] E6 | 
[V:3] C4-C^C, | 
[V:4] B_BA4- | 
[V:1] F2>G2F2 & A,6 | 
[V:2] D2z2z2 | 
[V:3] D,4-D,A, | 
[V:4] A_BA4 | 
[V:1] G2>A2G2 & A,6 | 
[V:2] z6 | 
[V:3] E,4-E,A, | 
[V:4] z _BA4 | 
[V:1] F2>G2F2 & A,6 | 
[V:2] d2>A2f.d | 
[V:3] D,4-D,A, | 
[V:4] z _BA4 | 
[V:1] [A,2G2]>_b2a^c' | 
[V:2] d4^c2 | 
[V:3] E,4-E,A, | 
[V:4] z _BA4 | 
[V:1] d'2>a2f'.d' | 
[V:2] [A,4F4][G,2F2] | 
[V:3] D,4-D,=B, | 
[V:4] z _BA2G2 | 
[V:1] d'4=c'2 | 
[V:2] G,2>F2E2 | 
[V:3] E,4-E,G, | 
[V:4] z AG4 | 
[V:1] z2z G[A,2F2] | 
[V:2] d2>A2f.d | 
[V:3] D,4-D,A, | 
[V:4] F_BA4 | 
[V:1] [A,2G2]ge_b.g | 
[V:2] d4^c2 | 
[V:3] E,4-E,A, | 
[V:4] z _BA4 | 
[V:1] g4f2 | 
[V:2] d2>e2fg | 
[V:3] D,4-D,A, | 
[V:4] z _BA4 | 
[V:1] z2z fe2 | 
[V:2] .a2.a2.a2 | 
[V:3] ^C,4-C,=C, | 
[V:4] z =BA4 | 
[V:1] a2>e2c'.a | 
[V:2] =c2>d2c2 | 
[V:3] A,4-A,E | 
[V:4] [K:clef=tenor]z FE4 | 
[V:1] a4^g2 | 
[V:2] z2z ed2 | 
[V:3] B,4-B,E | 
[V:4] z F-E4 | 
[V:1] a2>b2c'd' | 
[V:2] z2z dc2 | 
[V:3] A,4-A,E | 
[V:4] z FE4 | 
[V:1] .e'2.e'2.e'2 | 
[V:2] z2z cB2 | 
[V:3] ^G,4-G,E | 
[V:4] z FE4 | 
[V:1] e'4e'2 | 
[V:2] z2z dc2 | 
[V:3] =G,4-G,C | 
[V:4] z C_B,4 | 
[V:1] g'2>f'2.e'.d' | 
[V:2] z2z dc2 | 
[V:3] F,4-F,C | 
[V:4] z _B,A,4 | 
[V:1] c'4e'd' | 
[V:2] z2z dcB | 
[V:3] G,4-G,G | 
[V:4] z A,G,4 | 
[V:1] d'2z2z2 | 
[V:2] BcBed2 | 
[V:3] G,4-G,D | 
[V:4] z A2<G2F | 
[V:1] z2d'2f'2 | 
[V:2] z2z ed2 | 
[V:3] D,4-D,D | 
[V:4] z GF4 | 
[V:1] a'6 | 
[V:2] z FEBA2 | 
[V:3] ^C4=CA, | 
[V:4] z2[K:clef=bass]A,,2C,2 | 
[V:1] z2e2g2 | 
[V:2] z2z cB2 | 
[V:3] E,4-E,E | 
[V:4] [K:clef=tenor]z AG4 | 
[V:1] b6 | 
[V:2] z G^Fc[=FB]f | 
[V:3] ^D4=D^G, | 
[V:4] [K:clef=bass]z2B,,2D,2 | 
[V:1] z2a2c'2 | 
[V:2] z feFEA | 
[V:3] E,4-E,C | 
[V:4] ^C,2=C,2A,,2 | 
[V:1] e'4e'2 | 
[V:2] z FEdca | 
[V:3] E,4-E,C | 
[V:4] ^G,,2B,,2A,,2 | 
[V:1] e'2>b2d'c' | 
[V:2] z cB^GBA | 
[V:3] E,4-E,A, | 
[V:4] ^G,,2E,,2E,,2 | 
[V:1] a2z2z2 | 
[V:2] [CA] ^DE DE E | 
[V:3] A, ^D,E, D,E, E, | 
[V:4] A,,2z2z2 | 
[V:1] f'2>c'2e'd' | 
[V:2] E6- | 
[V:3] E,6- | 
[V:4] A,,4-A,,E, | 
[V:1] b2z2z2 | 
[V:2] E ^DE DE E | 
[V:3] E, ^D,E, D,E, E, | 
[V:4] ^G,,2z2z2 | 
[V:1] e'2>b2d'c' | 
[V:2] E6- | 
[V:3] E,6- | 
[V:4] ^G,,4-G,,E, | 
[V:1] a2z2z2 | 
[V:2] E ^de de e | 
[V:3] E, ^DE DE E | 
[V:4] A,, F,E, F,E, E, | 
[V:1] f'2>c'2e'd' | 
[V:2] [E6e6] | 
[V:3] E,6 | 
[V:4] A,,4-A,,E, | 
[V:1] b z b z c' z | 
[V:2] [Ee] z f z e z | 
[V:3] E, z D z C z | 
[V:4] ^G,, z ^G, z A, z | 
[V:1] d' z c' z b z | 
[V:2] f z e z e z | 
[V:3] A z A z ^G z | 
[V:4] D z E z E, z | 
[V:1] a ^d'e' d'e' e' | 
[V:2] [ce] cB cB c | 
[V:3] A A,^G, A,G, A, | 
[V:4] A, zz2z2 | 
[V:1] e'6- | 
[V:2] f2>c2ed | 
[V:3] A,6 | 
[V:4] [K:clef=tenor]F2>C2ED | 
[V:1] e' ^d'e' d'e' e' | 
[V:2] B CB, CB, B, | 
[V:3] ^G,E,2E,2E, | 
[V:4] B,[K:clef=bass] A,,G,, ^A,,G,, G,, | 
[V:1] e'6- | 
[V:2] e2>B2dc | 
[V:3] [^G,4B,4]-[G,B,]A, | 
[V:4] [K:clef=tenor]E2>B,2DC | 
[V:1] e' ^d'e' d'e' ^f' | 
[V:2] c CB,C2C | 
[V:3] A, A,^G, A,C, C, | 
[V:4] C zz2[K:clef=bass]z _A,, | 
[V:1] g'2>=d'2=f'e' | 
[V:2] B, CB, CB, C | 
[V:3] D, C,D, C,D, C, | 
[V:4] =G,, A,,G,, A,,G,, G,, | 
[V:1] c' z d' z e' z | 
[V:2] E z g z e z | 
[V:3] G, z G, z G, z | 
[V:4] C,2B,, z C, z | 
[V:1] f' z e' z d' z | 
[V:2] A z G z f z | 
[V:3] c z c z B z | 
[V:4] F,, z G,, z G,, z | 
[V:1] c' zz2z2 | 
[V:2] e z e z f z | 
[V:3] G z c z d z | 
[V:4] C,2z2z2 | 
[V:1] z2e' z f' z | 
[V:2] g z f z e z | 
[V:3] e z d z c z | 
[V:4] [K:clef=tenor]z2c z c z | 
[V:1] g'4c'2 | 
[V:2] Gga^f g z | 
[V:3] E2z2Ee | 
[V:4] c z E z e z | 
[V:1] b2z2b2 | 
[V:2] z =fge f z | 
[V:3] edz2Dd | 
[V:4] z2D z d z | 
[V:1] e'4a2 | 
[V:2] z efd e z | 
[V:3] dcz2Cc | 
[V:4] z2C z c z | 
[V:1] g2z2g2 | 
[V:2] z dec d z | 
[V:3] cBz2B,B | 
[V:4] z2B, z B z | 
[V:1] .c'2=f2.e2 | 
[V:2] z cdBcB | 
[V:3] A2z2z2 | 
[V:4] z2[K:clef=tenor]A, z AG | 
[V:1] d2.c2e2 | 
[V:2] ABGABc | 
[V:3] z2GFEG | 
[V:4] FGEDCE | 
[V:1] d4a2 | 
[V:2] cBcABc | 
[V:3] A6 | 
[V:4] F6 | 
[V:1] ^g4.c'2 | 
[V:2] eBedce | 
[V:3] B4E,2 | 
[V:4] E4E2 | 
[V:1] .c'4.c'2 | 
[V:2] d4a2 | 
[V:3] F,4F,2- | 
[V:4] D4A2 | 
[V:1] c'4c'e' | 
[V:2] ^g4a2- | 
[V:3] F,4F2- | 
[V:4] ^G4A2- | 
[V:1] d'4a'2 | 
[V:2] a4a2 | 
[V:3] F4F2- | 
[V:4] A4A2 | 
[V:1] ^g'4a'2- | 
[V:2] _b4[c2a2]- | 
[V:3] F4[F,2C2]- | 
[V:4] _B4[K:clef=tenor]Ac | 
[V:1] a'2>z2a'2- | 
[V:2] [c2a2]>z2[c2a2]- | 
[V:3] [F,2C2]>z2[E,2-C2] | 
[V:4] =BcA z Ac | 
[V:1] a'2>z2a'2- | 
[V:2] [c2a2]>z2[A2f2]- | 
[V:3] [E,2C2]>z2[D,2D2]- | 
[V:4] BcA z Ac | 
[V:1] a'2>z2a'2- | 
[V:2] [A2f2]>z2e2- | 
[V:3] [D,2D2]>z2[C,2C2]- | 
[V:4] BcA z Ac | 
[V:1] a'2>z2^g2 | 
[V:2] e2>z2z2 | 
[V:3] [C,2C2]>z2z2 | 
[V:4] BcA zz2 | 
[V:1] a6 | 
[V:2] z6 | 
[V:3] z6 | 
[V:4] [K:clef=bass]z C,,E,,A,,B,,C, | 
[V:1] f2d2._B2 | 
[V:2] z6 | 
[V:3] z2z2^CD | 
[V:4] ^C,D,E,F,A,_B, | 
[V:1] A6 | 
[V:2] z2z2Bc | 
[V:3] =B,=C^DE^GA | 
[V:4] E,2z2z2 | 
[V:1] ^G2e2a2- | 
[V:2] ^cd=cB[C2A2]- | 
[V:3] ^AB=A^GF,2- | 
[V:4] z2z2[K:clef=tenor]Ac | 
[V:1] a2>z2c'2- | 
[V:2] [C2A2]>z2[c2a2]- | 
[V:3] F,2>z2E,2- | 
[V:4] =BcA z Ac | 
[V:1] c'2>z2f'2- | 
[V:2] [c2a2]>z2[A2f2]- | 
[V:3] E,2>z2[D,2D2]- | 
[V:4] BcA z Ac | 
[V:1] f'2>z2a'2- | 
[V:2] [A2f2]>z2[A2e2]- | 
[V:3] [D,2D2]>z2[C,2C2]- | 
[V:4] BcA z Ac | 
[V:1] a'2>z2a2 | 
[V:2] [A2e2]>z2z2 | 
[V:3] [C,2C2]>z2z2 | 
[V:4] BcA z[K:clef=bass]F,,2- | 
[V:1] a'6 | 
[V:2] z6 | 
[V:3] z6 | 
[V:4] F,,A,,B,,C,E,F, | 
[V:1] f'2d'2._b2 | 
[V:2] z2z2^cd | 
[V:3] ^CDEFA_B | 
[V:4] A,_B,z2z2 | 
[V:1] ^DE^F=GA_B | 
[V:2] _b6 | 
[V:3] _B6 | 
[V:4] =B,,C,^D,E,^F,G, | 
[V:1] ^de^f=ga_b | 
[V:2] g2e2.=c2 | 
[V:3] G2E2.=C2 | 
[V:4] [K:clef=tenor]B,C^DE^FG | 
[V:1] c'6 | 
[V:2] z6 | 
[V:3] E,F,G,E,F,G, | 
[V:4] [K:clef=bass]C,,D,,E,,C,,D,,E,, | 
[V:1] a2=f2.e2 | 
[V:2] c6- | 
[V:3] A,_B,CA,B,C | 
[V:4] =F,,G,,A,,F,,G,,A,, | 
[V:1] =d2_B2A2 | 
[V:2] c_BAG-GF- | 
[V:3] DEFDF,C | 
[V:4] _B,,C,D,B,,=B,,C,- | 
[V:1] G2c2E2 | 
[V:2] FEDC_B,2- | 
[V:3] _B,2E,2G,2- | 
[V:4] C,4C,2- | 
[V:1] G2F2d'2 | 
[V:2] B,2A,2cf | 
[V:3] G,2F,2A2- | 
[V:4] C,4C,2- | 
[V:1] =b2c'2e2 | 
[V:2] fedc_B2- | 
[V:3] AGFEG2 | 
[V:4] C,4C2- | 
[V:1] g2f2z2 | 
[V:2] B2A2z2 | 
[V:3] E2F2z2 | 
[V:4] C4D,2 | 
[V:1] z6 | 
[V:2] z6 | 
[V:3] z2z2G2 | 
[V:4] B,,2C,2E,,2 | 
[V:1] z6 | 
[V:2] z6 | 
[V:3] E2F2A,2- | 
[V:4] G,,2F,,2D,2 | 
[V:1] z6 | 
[V:2] z6 | 
[V:3] A,2_B,2=B,2- | 
[V:4] G,,2F,2E,2 | 
[V:1] z6 | 
[V:2] z2z2A2 | 
[V:3] B,2C2C,2 | 
[V:4] G,2A,,2F,2 | 
[V:1] z6 | 
[V:2] ^F2G2=B,2 | 
[V:3] _E,2D,2G,2- | 
[V:4] C,2B,,2F,2- | 
[V:1] z6 | 
[V:2] D2C2A2 | 
[V:3] G,2G2C2 | 
[V:4] F,2E,2F,2- | 
[V:1] z6 | 
[V:2] D2c2B2 | 
[V:3] C2A2D2 | 
[V:4] F,2^F,2G,2- | 
[V:1] z2z2d'2 | 
[V:2] d2c2=f2 | 
[V:3] F2=E2B,2 | 
[V:4] G,2C2G,,2- | 
[V:1] =b2c'2e2 | 
[V:2] d2G2_B2- | 
[V:3] F2E2G2 | 
[V:4] G,,2C,2z2 | 
[V:1] g2f2d'2 | 
[V:2] B2A2f2- | 
[V:3] E2F2_B,2- | 
[V:4] z6 | 
[V:1] g2f'2e'2 | 
[V:2] f2d2G2 | 
[V:3] B,2=B,2C2 | 
[V:4] z2z2G,2 | 
[V:1] g'2a2f'2- | 
[V:2] _B2A2A2 | 
[V:3] G,2C2z2 | 
[V:4] E,2F,2D,,2- | 
[V:1] f'2e'2e2 | 
[V:2] ^G2A2C2 | 
[V:3] z2z2E2 | 
[V:4] D,,2^C,,2A,,2- | 
[V:1] g2f2z2 | 
[V:2] E2D2D2 | 
[V:3] ^c2d2G2 | 
[V:4] A,,2D,2B,2 | 
[V:1] z6 | 
[V:2] _E2D2=B,2- | 
[V:3] ^F2G2D,2- | 
[V:4] =C2B,2G,,2 | 
[V:1] z2z2g2 | 
[V:2] B,D=C2C2- | 
[V:3] D,=F,E,2E,2 | 
[V:4] ^F,,2G,,2G,,2- | 
[V:1] ^f2g2=B2- | 
[V:2] C2B,2D2- | 
[V:3] _E,2D,2G,2 | 
[V:4] G,,4[K:clef=tenor]G2 | 
[V:1] Bdc2e'2 | 
[V:2] DFE2c2 | 
[V:3] ^F,2G,2z2 | 
[V:4] ^F2G2z2 | 
[V:1] ^d'2e'2^g2 | 
[V:2] B2c2B2 | 
[V:3] z2E,2D2- | 
[V:4] z2[K:clef=bass]z2E,2 | 
[V:1] b2a2a2 | 
[V:2] ^G2A2c2 | 
[V:3] D2C2A2- | 
[V:4] E,2=F,2E,2 | 
[V:1] b2>e2d'.b | 
[V:2] B6 | 
[V:3] A2^G2E2- | 
[V:4] ^D,2E,2^G,,2- | 
[V:1] c'2>e2f'.c' | 
[V:2] c2E2A,2- | 
[V:3] E2C2C2 | 
[V:4] G,,2A,,2C,2 | 
[V:1] ^d'2e'2^g2 | 
[V:2] A,2^G,2B^G | 
[V:3] B,2>E,2DB,- | 
[V:4] z2E,,2E,2 | 
[V:1] b2c2a2 | 
[V:2] C2>A,2EC- | 
[V:3] B,2A,2z2 | 
[V:4] z2E,2A,,2 | 
[V:1] d2c'2b2 | 
[V:2] C2B, z dB | 
[V:3] F2>=G,2FD- | 
[V:4] z2=G,,2G,2 | 
[V:1] d'2e2c'2 | 
[V:2] c2>=G2ec | 
[V:3] D2C2z2 | 
[V:4] z2G,2C,2 | 
[V:1] f2e'2e'2 | 
[V:2] z6 | 
[V:3] D2>G,2FD | 
[V:4] z2B,,2G,2 | 
[V:1] f'2e2e'2 | 
[V:2] G2>E2cG | 
[V:3] z2EG,EC | 
[V:4] z2G,2C,2 | 
[V:1] f'2e2e'2 | 
[V:2] G2>E2cG | 
[V:3] z2EG,EC | 
[V:4] z2G,2C,2 | 
[V:1] f'2e2e'2 | 
[V:2] z6 | 
[V:3] d2>B2dE | 
[V:4] z2B,,2^G,2 | 
[V:1] f'2e2e'2 | 
[V:2] c'2>e2c'a | 
[V:3] z6 | 
[V:4] z2A,2A,,2 | 
[V:1] f'2e2e'2 | 
[V:2] z6 | 
[V:3] D2>B,2DE, | 
[V:4] z2^G,2^G,,2 | 
[V:1] f'ee'.e'e'e | 
[V:2] B,2>^G,2D.B, | 
[V:3] z6 | 
[V:4] ^G,,2>E,,2B,,.G,, | 
[V:1] f'ee'.e'e'e | 
[V:2] B,^G,D zz2 | 
[V:3] z2z D,B,^G, | 
[V:4] D,B,,^G, zz2 | 
[V:1] f'ee'.e'e'e | 
[V:2] DB,^G zz2 | 
[V:3] z2z DB^G | 
[V:4] z6 | 
[V:1] f'ee'.e'e'e | 
[V:2] dBb ba^g | 
[V:3] B^Gd dcd | 
[V:4] z2[K:clef=tenor]z ^GAB | 
[V:1] f'ee'.e'e'e | 
[V:2] ac CCCC | 
[V:3] cA A,A,A,A, | 
[V:4] A2>E2c.A | 
[V:1] f'ee'.e'e'e | 
[V:2] Dd DDDD | 
[V:3] B,B B,B,B,B, | 
[V:4] A4^G2 | 
[V:1] f'ee'a'a'a' | 
[V:2] EC A,A,A,A, | 
[V:3] CA, F,F,F,F, | 
[V:4] A2>B2cd | 
[V:1] a'2^g'2.e'2 | 
[V:2] B,B,B,B, EE | 
[V:3] E,E,E,E,E,E, | 
[V:4] .e2.e2.e2 | 
[V:1] e'4e'2 | 
[V:2] [_B,E][B,E][B,E][B,E][B,E][B,E] | 
[V:3] C,C,C,C, [C,G,][C,G,] | 
[V:4] e4e2 | 
[V:1] =g'2>f'2.e'.d' | 
[V:2] [A,F][A,F][A,F][A,F][A,F][A,F] | 
[V:3] F,F,F,F,F,F, | 
[V:4] =g2>f2.e.d | 
[V:1] c'4e'd' | 
[V:2] [CE][CE][CE][CE] [=B,D][B,D] | 
[V:3] G,G,G,G, G,G, | 
[V:4] c4ed | 
[V:1] d'2z2z2 | 
[V:2] [B,D][B,=G][B,G][B,G] [DF][DF] | 
[V:3] G,G,G,G, [D,A,][D,A,] | 
[V:4] d2z2z2 | 
[V:1] z2d'2f'2 | 
[V:2] [DF][DF][DF][DF][DF][DF] | 
[V:3] [D,A,][D,A,][D,A,][D,A,][D,A,][D,A,] | 
[V:4] z2D2F2 | 
[V:1] a'6 | 
[V:2] [A,E][A,E][A,E][A,E][A,E][A,E] | 
[V:3] ^C,C,C,C, =C,C, | 
[V:4] A6 | 
[V:1] z2e2g2 | 
[V:2] G,[B,G] [B,G][B,G][B,G][B,G] | 
[V:3] E,E,E,E,E,E, | 
[V:4] z2E2G2 | 
[V:1] b6 | 
[V:2] [B,^F][B,F][B,F][B,F] [^G,=F]G, | 
[V:3] ^D,D,D,D, =D,D, | 
[V:4] B6 | 
[V:1] z2a2c'2 | 
[V:2] EE [CE][CE][CE][CE] | 
[V:3] C,C A,A,[E,A,][E,A,] | 
[V:4] z2A2c2 | 
[V:1] e'4e'2 | 
[V:2] [B,E][B,E][B,E][B,E] [CE][CE] | 
[V:3] [E,^G,][E,G,][E,G,][E,G,] [E,A,][E,A,] | 
[V:4] e4e2 | 
[V:1] e'6- | 
[V:2] [B,E][B,E][B,E][B,E] [B,E][B,E] | 
[V:3] [E,^G,][E,G,][E,G,][E,G,] [E,G,][E,G,] | 
[V:4] e4^GA | 
[V:1] e'6- | 
[V:2] [B,6E6] | 
[V:3] [E,6^G,6] | 
[V:4] B2>^G2dB | 
[V:1] e'6- | 
[V:2] [^C6E6]- | 
[V:3] [E,6A,6]- | 
[V:4] B2A^GAB | 
[V:1] e'6 | 
[V:2] [C6E6] | 
[V:3] [E,6A,6] | 
[V:4] ^c2>A2ec | 
[V:1]  [K:A] e'6 | 
[V:2]  [K:A] D4[C2E2] | 
[V:3]  [K:A] [E,4B,4][E,2A,2] | 
[V:4]  [K:A] c2B^ABc | 
[V:1] g2a2b2 | 
[V:2] B,2B2E2- | 
[V:3] E,2F,2G,2 | 
[V:4] d4d2 | 
[V:1] c'4e'2- | 
[V:2] E2e2E2 | 
[V:3] A,4G,2 | 
[V:4] c4B2 | 
[V:1] e'4^d'2 | 
[V:2] A,2A2A,2- | 
[V:3] F,4F,2 | 
[V:4] A4B2 | 
[V:1] f'2e'ega | 
[V:2] A,2B,4 | 
[V:3] E,4E,2- | 
[V:4] A4G2 | 
[V:1] ^ab bgd'b | 
[V:2] G,4B,2 | 
[V:3] E,2D2E,2- | 
[V:4] G6 | 
[V:1] b=a agab | 
[V:2] C2A,2C2- | 
[V:3] E,2C2E,2- | 
[V:4] A6- | 
[V:1] bc' c'ae'c' | 
[V:2] C2A,2C2 | 
[V:3] E,2C2E,2- | 
[V:4] A4^A2 | 
[V:1] c'b b^abc' | 
[V:2] D2-DCB,A, | 
[V:3] E,2D2E,2- | 
[V:4] B2-B^ABc | 
[V:1] d'4d'2 | 
[V:2] G,2A,2G,2 | 
[V:3] E,2F,2E,2- | 
[V:4] d4d2 | 
[V:1] c'4b2 | 
[V:2] A,2C2E2- | 
[V:3] E,2A,2G,2 | 
[V:4] c4B2 | 
[V:1] =a4b2 | 
[V:2] E2^D4- | 
[V:3] F,4F,2 | 
[V:4] =A4B2 | 
[V:1] a4g2 | 
[V:2] D2E2B,2- | 
[V:3] E,4E2 | 
[V:4] A4G2 | 
[V:1] =g4a2 | 
[V:2] B,2=D2C2 | 
[V:3] E,4E,2- | 
[V:4] =G4A2 | 
[V:1] =g4f2 | 
[V:2] C2D2A,2- | 
[V:3] E,2D,2D,2- | 
[V:4] =G4F2 | 
[V:1] f'4f'2 | 
[V:2] A,4A,2- | 
[V:3] D,2C,2D,2- | 
[V:4] f4f2 | 
[V:1] e'4f'2 | 
[V:2] A,4A2- | 
[V:3] D,2C,2D,2 | 
[V:4] e4f2 | 
[V:1] c'4d'2 | 
[V:2] A4[B,2G2] | 
[V:3] D,2E,2E,2 | 
[V:4] c4d2 | 
[V:1] d'2c'2d'e' | 
[V:2] A2E2F=G & A,6 | 
[V:3] F,2=G,2F,E,- | 
[V:4] d2c2de | 
[V:1] f'4f'2 | 
[V:2] A,4A2 | 
[V:3] E,2D,2D,2- | 
[V:4] f4f2 | 
[V:1] e'4f'2 | 
[V:2] A,4A2 | 
[V:3] D,2C,2D,2 | 
[V:4] e4f2 | 
[V:1] c'4e'd' | 
[V:2] A,2A2[B,2G2] | 
[V:3] ^D,2E,2E,2 | 
[V:4] c4ed | 
[V:1] z2c'2z2 | 
[V:2] z2[A,2E2]z2 | 
[V:3] z2E,A,G,A, | 
[V:4] z2c2z2 | 
[V:1] z6 | 
[V:2] z6 | 
[V:3] B,CDEFE | 
[V:4] [K:clef=tenor]z6 | 
[V:1] z2[A,2E2]z2 | 
[V:2] z2gagf | 
[V:3] E2A4 | 
[V:4] z2EFED | 
[V:1] z6 | 
[V:2] fefBcd | 
[V:3] z6 | 
[V:4] DCDG,A,B, | 
[V:1] z2eaga | 
[V:2] c2e4 | 
[V:3] z2[A,2E2]z2 | 
[V:4] A,2C4 | 
[V:1] bc'd'e'f'e' | 
[V:2] z6 | 
[V:3] z6 | 
[V:4] [K:clef=bass]z2z A,,G,,A,, | 
[V:1] e'2a'2g'f' | 
[V:2] z2gagf | 
[V:3] z2EFED | 
[V:4] B,,C, C,B,,C,D, | 
[V:1] f'e'f'bc'd' | 
[V:2] fefBcd | 
[V:3] DCDG,A,B, | 
[V:4] D,E, E,E,E,E, | 
[V:1] .c'2.c'2z2 | 
[V:2] .c2.c2z2 | 
[V:3] E,2A,2z2 | 
[V:4] .A,.C.E.D.C.B, | 
[V:1] .c'2.c'2z2 | 
[V:2] .c2.c2z2 | 
[V:3] .[A,2E2].[A,2E2]z2 | 
[V:4] .A,.G,.A,.=G,.F,.E, | 
[V:1] .f'2.f'2z2 | 
[V:2] .F2.f2z2 | 
[V:3] .A,.C.D.C.B,.A, | 
[V:4] .D,.C,.D,.C,.B,,.A,, | 
[V:1] .e'2.e'2z2 | 
[V:2] .B2.[G2B2]z2 | 
[V:3] .G,.^D.E.=D.C.B, | 
[V:4] .G,,.^D,.E,.=D,.C,.B,, | 
[V:1] .a.c'.e'.d'.c'.b | 
[V:2] .A.c.e.d.c.B | 
[V:3] .E,2.C2z2 | 
[V:4] .C,2.C,2z2 | 
[V:1] .a.g.a.=g.f.e | 
[V:2] .A.G.A.=G.F.E | 
[V:3] .C2.C2z2 | 
[V:4] .F,2.F,2z2 | 
[V:1] dc'd'c'ba | 
[V:2] DcdcBA | 
[V:3] .[B,2F2].[B,2F2]z2 | 
[V:4] .B,,2.B,,2z2 | 
[V:1] g^d'e'=d'c'b | 
[V:2] G^de=dcB | 
[V:3] .[B,2E2][B,E]E,F,G, | 
[V:4] .E,2E,E,,F,,G,, | 
[V:1] a2>e2c'.a | 
[V:2] cEA cEA | 
[V:3] A,E,C CE,A, | 
[V:4] A,,E,,C, zz2 | 
[V:1] b2>g2d'.b | 
[V:2] dGB dGB | 
[V:3] B,G,D DG,B, | 
[V:4] B,,G,,D, zz2 | 
[V:1] c'2>a2e'.c' | 
[V:2] eAc eAc | 
[V:3] CA,E EA,C | 
[V:4] C,A,,E, zz2 | 
[V:1] d'2>b2=f'.d' | 
[V:2] =FG,D =fdf | 
[V:3] DB,=F dBB | 
[V:4] D,B,,=F, G,GA | 
[V:1] .e'2.e'2.=f'2 | 
[V:2] .e2.e2.e2 | 
[V:3] .c2.c2.d2 | 
[V:4] [K:clef=tenor].A2.A2.G2 | 
[V:1] .e'2.e'2.=f'2 | 
[V:2] .e2.c'2.d'2 | 
[V:3] .c2.e2.e2 | 
[V:4] .A2.A2.G2 | 
[V:1] .e'2.e'2.f'2 | 
[V:2] .c'2.e2.e2 | 
[V:3] .e2.c2.d2 | 
[V:4] .A2.A2.G2 | 
[V:1] .e'2.e'2.f'2 | 
[V:2] .e2.c'2.d'2 | 
[V:3] .c2e2.e2 | 
[V:4] .A2.A2.G2 | 
[V:1] e'2z2z2 | 
[V:2] c'2z2z2 | 
[V:3] e2z2z2 | 
[V:4] A2z2z2 | 
[V:1] a'2z2z2 | 
[V:2] A,2z2z2 | 
[V:3] c2z2z2 | 
[V:4] A2z2z2 | 
[V:1] A2z2z2 | 
[V:2] F2z2z2 | 
[V:3] F,6- | 
[V:4] F2z2z2 | 
[V:1] z2A2F2 | 
[V:2] z2A,4 | 
[V:3] F,2A,2F,2 | 
[V:4] [K:clef=bass]z2A,,2F,,2 | 
[V:1] .D2^D4 | 
[V:2] .A,2^D4 | 
[V:3] .D,2^D,4 | 
[V:4] .D,,2^D,,4 | 
[V:1] .E2.e2z2 | 
[V:2] .E2.e2z2 | 
[V:3] .E,2.E2z2 | 
[V:4] .E,,2.E,2z2 | 
[V:1] .A2.a2z2 | 
[V:2] .A,2.A2z2 | 
[V:3] .A,2.A2z2 | 
[V:4] .A,,2.A,2z2 | 
[V:1] e2e'2ga | 
[V:2] .E2e4- | 
[V:3] .E,2E4- | 
[V:4] .E,2E4- | 
[V:1] ^ab bgd'b | 
[V:2] e4[G2e2-] | 
[V:3] E4[E2B2] | 
[V:4] E4[K:clef=tenor]GA | 
[V:1] ba agab | 
[V:2] [A2e2][A4e4]- | 
[V:3] [E2c2][E4c4]- | 
[V:4] B2z2AB | 
[V:1] bc' c'ae'c' | 
[V:2] [A2e2][A4e4]- | 
[V:3] [E2c2][E4c4]- | 
[V:4] c2z2AB | 
[V:1] c'b b^abc' | 
[V:2] [A2e2][G4e4]- | 
[V:3] [E2c2][E4B4]- | 
[V:4] c2z2Bc | 
[V:1] d'4d'2 | 
[V:2] [Ge]GAGAB | 
[V:3] [EB]E,F,E,F,G, | 
[V:4] d4d2 | 
[V:1] c'4b2 | 
[V:2] EFFEFG | 
[V:3] A,2A2G,2 | 
[V:4] c4B2 | 
[V:1] =a4b2 | 
[V:2] ^Dc cBc^d | 
[V:3] F,2F2[F,2A,2] | 
[V:4] A4B2 | 
[V:1] a4g2 | 
[V:2] ^de.B.A.B.E | 
[V:3] F,E, E,E,E,E, | 
[V:4] A4G2 | 
[V:1] =g4a2 | 
[V:2] Bcc=d^de | 
[V:3] E,E,E, D,C,C, | 
[V:4] =G4A2 | 
[V:1] =g4f2 | 
[V:2] eABc=dA | 
[V:3] C,C,E,E,D,D, | 
[V:4] =G4F2 | 
[V:1] f'4f'2 | 
[V:2] ABAaga | 
[V:3] D,D,C,C,D,D, | 
[V:4] f4f2 | 
[V:1] e'4f'2 | 
[V:2] ABAaga | 
[V:3] D,D,C,C,D,D, | 
[V:4] e4f2 | 
[V:1] c'4d'2 | 
[V:2] aAABGB | 
[V:3] ^D,D,E,E,^E,E, | 
[V:4] c4d2 | 
[V:1] d'2c'2d'e' | 
[V:2] BAAA,A=G | 
[V:3] ^E,F,F,=G,F,=E, | 
[V:4] d2c2de | 
[V:1] f'4f'2 | 
[V:2] FfGAaA | 
[V:3] E,D,D,D,D,D, | 
[V:4] f4f2 | 
[V:1] e'4f'2 | 
[V:2] aA GAAA, | 
[V:3] D,C,C,C,D,D, | 
[V:4] e4f2 | 
[V:1] c'4e'd' | 
[V:2] afecGB | 
[V:3] D,^D,E,E,E,E, | 
[V:4] c4ed | 
[V:1] z2c'2z2 | 
[V:2] z2EAGA | 
[V:3] z2E,A,G,A, | 
[V:4] z2c2z2 | 
[V:1] z6 | 
[V:2] Bcdefe | 
[V:3] B,CDEFE | 
[V:4] z6 | 
[V:1] z2EFED | 
[V:2] e2a4 | 
[V:3] E2A4 | 
[V:4] [K:clef=tenor]z2GAGF | 
[V:1] DCDG,A,B, | 
[V:2] z6 | 
[V:3] z6 | 
[V:4] FEFB,CD | 
[V:1] A,2eaga | 
[V:2] z2EAGA | 
[V:3] A,2C2E,2 | 
[V:4] C2E4 | 
[V:1] bc'd'e'f'e' | 
[V:2] Bcdefe | 
[V:3] D,A,G,=G,F,^G, | 
[V:4] [K:clef=bass]z2z C,D,E, | 
[V:1] e'2a'2g'f' | 
[V:2] cC ccDd | 
[V:3] A,4A,2 | 
[V:4] E,,A,,G,,A,, B,,B,, | 
[V:1] f'e'f'bc'd' | 
[V:2] dcBBAG | 
[V:3] A,EDDCB, | 
[V:4] C,C, D,E,E,.E,, | 
[V:1] .c'2.c'2z2 | 
[V:2] .A2.A2z2 | 
[V:3] .A,.C.E.D.C.B, | 
[V:4] .A,,.C,.E,.D,.C,.B,, | 
[V:1] .c'2.c'2z2 | 
[V:2] .e2.e2z2 | 
[V:3] .A,.G,.A,.=G,.F,.E, | 
[V:4] .A,,.G,,.A,,.=G,,.F,,.E,, | 
[V:1] .f'2.f'2z2 | 
[V:2] .F2.f2z2 | 
[V:3] D,CDCB,A, | 
[V:4] D,,C,D,C,B,,A,, | 
[V:1] .e'2.e'2z2 | 
[V:2] .B2.[B2g2]z2 | 
[V:3] G,B,EDCB, | 
[V:4] G,,B,,E,D,C,B,, | 
[V:1] .a.c'.e'.d'.c'.b | 
[V:2] .A.c.e.d.c.B | 
[V:3] .C2.C2z2 | 
[V:4] .C,2.C,2z2 | 
[V:1] .a.g.a.=g.f.e | 
[V:2] .A.G.A.=G.F.E | 
[V:3] .[F,2C2].[F,2C2]z2 | 
[V:4] .F,,2.F,,2z2 | 
[V:1] dc'd'c'ba | 
[V:2] DcdcBA | 
[V:3] .F,2.F2z2 | 
[V:4] .B,,2.B,,2z2 | 
[V:1] gbe'd'c'b | 
[V:2] GBedcB | 
[V:3] .[B,2E2].[G,2E2]z2 | 
[V:4] .E,2.E,,2z2 | 
[V:1] aAa ec'a | 
[V:2] cEc ECE | 
[V:3] ECE CA,C | 
[V:4] A,,A,A,, zA2 | 
[V:1] bgb gd'b | 
[V:2] =FDF dBd | 
[V:3] DB,D =FDF | 
[V:4] A,,A,A,, zA2 | 
[V:1] c'ac' ae'c' | 
[V:2] ece ece | 
[V:3] cEc cEc | 
[V:4] A,,A,A,, zA2 | 
[V:1] d'b=f' bf'd' | 
[V:2] =fBG fBd | 
[V:3] BGd dGB | 
[V:4] A,,A,A,, zA2 | 
[V:1] .e'2.e'2.=f'2 | 
[V:2] ee=fefe | 
[V:3] ccdcdc | 
[V:4] [K:clef=tenor]AAGAA,A | 
[V:1] .e'2.e'2.=f'2 | 
[V:2] =fefefe | 
[V:3] dcdcdc | 
[V:4] GAA,AGA | 
[V:1] .e'2.e'2.f'2 | 
[V:2] fefefe | 
[V:3] dcdcdc | 
[V:4] GAA,AGA | 
[V:1] .e'2.e'2.f'2 | 
[V:2] fefefe | 
[V:3] dcdcdc | 
[V:4] GAA,AGA | 
[V:1] e'2z2z2 | 
[V:2] e2z2z2 | 
[V:3] c2z2z2 | 
[V:4] A2z2z2 | 
[V:1] a'2z2z2 | 
[V:2] z6 | 
[V:3] F,2z2z2 | 
[V:4] [K:clef=bass]F,,2z2z2 | 
[V:1] A6- | 
[V:2] a2z2z2 | 
[V:3] =C,6- | 
[V:4] =C,,6- | 
[V:1] A2A2F2 | 
[V:2] F2z2z2 | 
[V:3] C,2=C,2^C,2 | 
[V:4] C,,2=C,,2^C,,2 | 
[V:1] D2^D4 | 
[V:2] D2^D4 | 
[V:3] D,2^D,4 | 
[V:4] D,,2^D,,4 | 
[V:1] .E2.e2z2 | 
[V:2] .E2.e2z2 | 
[V:3] .E,2.E2z2 | 
[V:4] .E,,2.E,2z2 | 
[V:1] .A2.a2z2 | 
[V:2] .A2.a2z2 | 
[V:3] .A,2.A2z2 | 
[V:4] .A,,2.A,2z2 | 
[V:1] .e2.e'2z2 | 
[V:2] .E2.e2z2 | 
[V:3] .E2.e2z2 | 
[V:4] .E,2.E2z2 | 
[V:1] z2e2e'2 | 
[V:2] z2E2e2 | 
[V:3] z2E,2[B,2G2] | 
[V:4] z2E,2E2 | 
[V:1] c'2z2z2 | 
[V:2] c2E2e2 | 
[V:3] [C2A2]E,2E2 | 
[V:4] A,2z2z2 | 
[V:1] z2e2e'2 | 
[V:2] c2E2[E2B2g2] | 
[V:3] C2E,2E2 | 
[V:4] z2E,,2E,2 | 
[V:1] [A2a2]z2!fermata!z2 |]  
[V:2] [E2c2a2]z2!fermata!z2 |]  
[V:3] A,2z2!fermata!z2 |]  
[V:4] A,,2z2!fermata!z2 |]  


